!!!COM: Palestrina, Giovanni Perluigi da
!!!OPR: Missa Ave regina coelorum
!!!OMD: Benedictus
!!!OTL: First Section
**kern	**kern	**kern
*Itenor	*Icalto	*Icant
!Tenor	!Altus	!Cantus
*clefGv2	*clefG2	*clefG2
*k[]	*k[]	*k[]
*C:ion	*C:ion	*C:ion
*M4/2	*M4/2	*M4/2
=1	=1	=1
0r	1g	1r
.	2.a	1cc
.	4b	.
=2	=2	=2
0r	1cc	2.ee
.	.	4ff
.	1b	1gg
=3	=3	=3
0r	1.a	1ff
.	.	1ee
.	2g	.
=4	=4	=4
0r	2f	1dd
.	2g	.
.	2a	1cc
.	2e	.
=5	=5	=5
1r	2f	1dd
.	2.g	.
1c	.	[1ee
.	4f	.
.	4e	.
.	4d	.
=6	=6	=6
2.e	2c	1ee]
.	1cc	.
4f	.	.
1g	.	1dd
.	2b	.
=7	=7	=7
1f	1a	2r
.	.	2dd
1e	2r	2ee
.	2g	[2gg
=8	=8	=8
1d	2.a	2gg]
.	.	2ff#
.	4b	.
1c	1cc	2ee
.	.	[2gg
=9	=9	=9
1d	2b	2gg]
.	2a	2ff#
[1e	2g	4gg
.	.	4ff
.	4c	4ee
.	4d	4dd
=10	=10	=10
1e]	4e	4cc
.	4f	4b
.	1g	4b
.	.	8a
.	.	8g
2.d	.	1a
.	2f#	.
4c	.	.
=11	=11	=11
2B	1g	2r
1c	.	2g
.	2r	2a
2B	2d	2b
=12	=12	=12
1A	2e	1.cc
.	2f#	.
1G	[1g	.
.	.	2b
=13	=13	=13
1d	2g]	2.a
.	2f	.
.	.	4b
1r	2.e	4cc
.	.	4dd
.	.	[2ee
.	4f	.
=14	=14	=14
0r	4g	4ee]
.	4a	4cc
.	4b	4dd
.	4g	4ee
.	4a	2ff
.	4b	.
.	2cc	2ee
=15	=15	=15
2r	2b	2dd
2c	1a	2cc
2d	.	2b
2e	2g#	2b
=16	=16	=16
1.f	1a	2a
.	.	2cc
.	1r	2dd
2e	.	2ee
=17	=17	=17
2.d	0r	1.ff
4e	.	.
4f	.	.
4g	.	.
[2a	.	4ee
.	.	4dd
=18	=18	=18
4a]	1r	2ee
4g	.	.
4e	.	4gg
4f	.	4ff
2g	1c	4ee
.	.	4dd
2a	.	4cc
.	.	4b
=19	=19	=19
2f	2d	4a
.	.	4b
2e	2e	1cc
2d	[1f	.
2d	.	2b
=20	=20	=20
1c	2f]	2cc
.	2e	2g
2r	1d	2a
2G	.	2b
=21	=21	=21
2A	2r	2cc
2B	2d	4b
.	.	4a
[1c	2.e	1g
.	4f	.
=22	=22	=22
2c]	1g	0r
2B	.	.
2.A	2f	.
.	[2e	.
4B	.	.
=23	=23	=23
4c	4e]	0r
4d	4f	.
4e	4g	.
4c	4a	.
4d	4b	.
4e	4g	.
2f	4a	.
.	4b	.
=24	=24	=24
2.e	2cc	2r
.	2b	2g
4d	.	.
2c	2a	2a
2B	[2g	2b
=25	=25	=25
2A	2g]	1.cc
2A	2f#	.
2G	1g	.
[2g	.	2b
=26	=26	=26
2g]	1d	2.a
1f	.	.
.	.	4b
.	2r	4cc
.	.	4dd
2e	2g	4ee
.	.	4cc
=27	=27	=27
1d	2.a	4dd
.	.	4ee
.	.	1ff
.	4b	.
2.c	[1cc	.
.	.	2ee
4c	.	.
=28	=28	=28
2g	2cc]	1dd
2G	2b	.
2A	2a	2r
2B	4g	2gg
.	4f	.
=29	=29	=29
1.c	2e	4gg
.	.	4ff
.	2g	4ee
.	.	4dd
.	2a	2cc
2B	2b	2dd
=30	=30	=30
2.A	2.cc	0ee
4B	4b	.
4c	2a	.
4d	.	.
4e	2g	.
4c	.	.
=31	=31	=31
4d	2f	2.dd
4e	.	.
1f	1a	.
.	.	8cc
.	.	8b
.	.	4cc
.	.	4b
2e	[2g	4a
.	.	4g
=32	=32	=32
1.d	2g]	1.a
.	4f#	.
.	4e	.
.	2f#	.
2d	2f#	2a
=33	=33	=33
0G	0g	0b
*-	*-	*-
!!!CDT: 1525/^1526/-1594/2/2
!!!OCY: Italia
!!!AGN: Mass (Paraphrase)
!!!AST: renaissance, vocal
!!!ASW: Antiphon
!!!PWK: Masses, Book 9
!!!RNB: Cadence finals: G
!!!YOR: Le Opere Complete, v. 25, p. 1
!!!YOO: Rome, Italy: Fratelli Scalera
!!!END: 1992//
!!!EED: John Miller
!!!YEC: Copyright 2000, John Miller
!!!YEN: United States of America
!!!YEM: Rights to all derivative electronic formats reserved.
!!!YEM: Refer to licensing agreement for further details.
!!!YEM: This file must be accompanied by the licensing agreement.
!!!YEM: A copy of the licensing agreement may be found at http://www.music-cog.ohio-state.edu/HumdrumDatabases/Palestrina/license.txt
!!!EMD: converted to Humdrum by Bret Aarden
